X: 1
T: John Walsh's
M: 2/4
L: 1/8
R: polka
K: Gmaj
G>A BA | GE ED | B,D ED|B,D ED |
G>A BA | GE ED | B,D ED|G2 G2 :|
g2 gf/g/ | ag ge | dB BA|GA Bd |
g2 gf/g/ | ag ge | dB BA|G2 G2 :|
